X:1
T:WAM C 21 Mov II in 2
T:Concerto  21 Mov II  Wolfgang A. Mozart
%%score { ( 1 3 4 ) | ( 2 5 6 ) }
L:1/8
Q:1/4=72
M:4/4
K:F
V:1 treble nm="Piano" snm="Pno."
V:3 treble 
V:4 treble 
V:2 bass 
V:5 bass 
V:6 bass 
V:1
 z8 |"^F" f3-"^F" f/"^C"c/"^A" a3-"^A" a/"^F"f/ |"^C" c'6"^B♭" b/"^A"a/"^G"g/"^F"f/ | %3
"^F♯" ^f2"^G" g2 z4 |"^C" c4"^E" e2"^G" g2 |"^B♭" b4-"^B♭" b"^D"d'"^C"c'"^B♭"b | %6
"^A♭" _a"^A"=a"^A" a2 z4 |"^C" c'4"^A" A,3"^A" A, |"^C" C"^B♭"B,"^B♭" B,2 z4 | %9
"^D""^D" d'4"^B""^B" =B,3"^B""^B" B, |"^F""^C" (3FFF (3FFF (3FFF"^F""^C" (3FFF | %11
"^F""^C♯" (3FFF (3FFF (3FFF"^G" (3FFF |"^C♯" (3G"^G"GG"^F" (3FFF"^A♭" (3_AAA"^A♭""^G" (3AAA | %13
"^C" c'6"^F" f2 |"^B♭" (3BBB"^A♭" (3_AAA"^B" (3=BBB"^B" (3BBB | z2"^G" G2"^G" g4 | %16
"^F" f4"^E" e"^D"d"^C"c"^B♭"B |"^A" A4"^G" G2"^C" c2 | %18
"^B♭" B2"^A" A2 (3z"^C\nC" [cc']"^C♯\nC♯"[^c^c']"^D\nD" (3[dd']"^E♭\nE♭"[_e_e']"^E\nE"[=e=e'] | %19
"^F\nF" [ff']4"^E\nE" [ee']"^D\nD"[dd']"^C\nC"[cc']"^B♭\nB♭"[Bb] | %20
"^A\nA" [Aa]2"^G\nG" [Gg]3"^A\nA" [Aa]/4"^G\nG"[Gg]/4"^F♯\nF♯"[^F^f]/4"^G\nG"[Gg]/4"^C\nC" [cc']2 | %21
"^F\nF" (3[Ff]"^C\nA\nF"[FAc][FAc] (3[FAc]"^A\nC"[CA][CA]"^A\nC" (3[CA]"^F\nC"[CF][CF] (3[CF][CF][CF] | %22
"^F" (3z"^C\nA" [A,C][A,C] z2"^F" (3z"^C\nA" [A,C][A,C] z2 | %23
"^F" f3-"^F" f/"^C"c/"^A" a3-"^A" a/"^F"f/ |"^C" c'6-"^C" c'"^B♭"b/4"^A"a/4"^G"g/4"^F"f/4 | %25
"^F♯" ^f2"^G" g2 z4 |"^C" c4"^E" e2"^G" g2 |"^B♭" b4-"^B♭" b"^D"d'"^C"c'"^B♭"b | %28
"^A♭" z"^A" z z2 z4 |"^C" c'4[K:bass]"^A" A,,3"^A" A,, |"^C" C,"^B♭"B,,"^B♭" B,,2 z4 | %31
[K:treble]"^D" d'4[K:bass]"^B" =B,,3"^B" B,, | %32
"^C" C,2[K:treble]"^C" c'4"^B♭" b/"^A"a/"^G"g/"^F"f/ | %33
"^E" e/4"^F"f/4"^E"e/4"^F"f/4"^E"e/4"^F"f/4"^E"e/4"^F"f/4"^E" e/4"^F"f/4"^E"e/4"^F"f/4"^E"e/4"^F"f/4"^E"e/4"^F"f/4"^E" e/4"^F"f/4"^E"e/4"^F"f/4"^E"e/4"^F"f/4"^E"e/4"^F"f/4"^E" e/4"^F"f/4"^E"e/4"^F"f/4"^E"e/4"^F"f/4"^E"e/4"^F"f/4 | %34
"^A\nF" (3[fa]"^C\nA"[Ac][Ac] (3[Ac][Ac][Ac]"^C\nA" (3[Ac]"^A\nF"[FA][FA]"^A\nF" (3[FA][FA][FA] | %35
"^B♭\nG" (3[GB][GB][GB] (3[GB][GB][GB]"^G\nE" (3[eg][eg][eg] (3[eg][eg][eg] | %36
"^A" z2"^A" .a4"^G" z2 |"^E" e/4"^D"d/4"^C"c/4"^D"d/4-"^D"d/"^E"e/"^F" f2 z"^F" f"^G"g"^A"a | %38
"^C" c/4"^E"e/4"^B♭".b3/2"^B♭" b2-"^B♭" b/"^G"g/"^G"g/"^E"e/"^E" e/"^C"c/"^G"g/"^B♭"B/ | %39
"^C" c"^B♭"B/4"^C"c/4"^B♭"B/4"^C"c/4"^A" A2-"^A" A"^C"c"^F"f"^A"a |"^C" c'"^G"g"^G" g4"^F" f"^E"e | %41
"^C♯" ^c2"^D" d2 z"^D" d"^D"d"^D"d |"^D" d>"^E"e"^F♯" ^f>"^G"g"^A" a>"^B"=b"^C" c'>"^C"c | %43
"^C" (5:4:5c/"^B"=B/4"^A"A/4-"^A"A3/4"^G"G3/4"^G" G2 z2"^G" g2 |"^A♭" _a6"^D" z2 |"^G" g6"^C" z2 | %46
"^F" f6"^B" z2 |"^E♭" _e6"^A" z2 |"^D" d6"^G" z2 |"^C" c2"^C" c'2"^B" =b"^A"a"^G"g"^F"f | %50
"^E" e4"^D" d2"^G" g2 |"^F" f2"^A""^E" (3=A,"^C"C"^E"E z z z2 | %52
"^C" c2"^C" c'2"^B\nG" [=g=b]"^A\nF"[fa]"^G\nE"[eg]"^F\nD"[df] |"^E" e4"^D" d2"^G" g2 | %54
"^C\nG" (3[G,C][G,C][G,C] (3[G,C][G,C][G,C] (3[G,C][G,C][G,C] (3[G,C][G,C][G,C] | %55
"^C\nA" (3[A,C]"^F♯\nC"[C^F][CF] (3[CF][CF][CF] (3[CF][CF][CF]"^G\nE♭" (3[_EG][EG][EG] | %56
"^D" d'4"^C" c'/4"^D"d'/4"^C"c'/4"^D"d'/4"^C"c'/4"^D"d'/4"^C"c'/4"^D"d'/4"^C" c'/4"^D"d'/4"^C"c'/4"^D"d'/4"^B♭"b/"^C"c'/ | %57
"^B♭\nG" [gb]2 z2 z4 |"^B♭" b8 | %59
"^A" a4"^G" g/4"^A"a/4"^G"g/4"^A"a/4"^G"g/4"^A"a/4"^G"g/4"^A"a/4"^G" g/4"^A"a/4"^G"g/4"^A"a/4"^F"f/"^G"g/ | %60
 (3z"^D\nA" [Ad][Ad] (3[Ad][Ad][Ad]"^E♭\nA" (3[A_e][Ae][Ae] (3[Ae][Ae][ce] | %61
"^B♭" b4"^G" g/4"^F"f/4"^E"(3:2:2e3/8"^F"f3/8-"^F" f2"^G" g | %62
 (3z"^C" C"^D"D"^E♭" (3_EEE (3z"^C" c"^D"d"^E♭" (3_eee | %63
 (3z"^A" A"^B♭"B"^C" (3ccc (3z"^A" a"^B♭"b"^C" (3c'c'c' | %64
 (3z"^D" D"^E♭"_E"^F" (3FFF (3z"^D" d"^E♭"_e"^F" (3fff | %65
"^F\nF" [Ff]2 z2 (3z"^E♭" _e"^F♯"^f"^A" (3a"^C"c'"^E♭"_e' | %66
"^B♭\nG" [gb]4 (3z"^B♭" B"^D"d"^G" (3g"^B♭"b"^D"d' | %67
"^G\nE" [eg]4 (3z"^C♯" ^c"^E"e"^G" (3g"^B♭"b"^C♯"^c' | %68
"^C" c'4 (3z"^A♭" _A"^C"c"^F" (3f"^A♭"_a"^C"c' |"^C" c'"^B"=b"^A♭" _a4"^G" g"^F"f | %70
"^F" f"^E"e"^D"d"^C"c"^B" =B"^C"c"^C♯"^c"^C"=c |"^F" f"^E"e"^D"d"^C"c"^B" =B"^C"c"^C♯"^c"^C"=c | %72
"^E♭" _e3-"^E♭" e/"^C"c/"^A♭" _a>"^E♭"e"^C" c'>"^A♭"a | %73
"^E♭" _e'6"^C♯" ^c'/"^C"=c'/"^B♭"b/"^A♭"_a/ |"^A" a"^B♭"b"^B♭" b2 z2"^E♭" _e2 | %75
"^F" (7:8:5f3/16"^E♭"_e/16-"^E♭"e3/16"^D"d3/16"^E♭"e/4-"^E♭" e3"^G" g2"^B♭" b2 | %76
"^C♯" ^c'3"^C" =c'/"^B♭"b/"^A♭" _a/"^G"g/"^F"f/"^E♭"_e/"^D" d/"^E♭"e/"^F"f/"^C♯"^c/ | %77
"^E♭" _e"^C♯"^c"^C" =c/4"^C♯"^c/4"^C"=c/4"^C♯"^c/4"^C"=c/4"^C♯"^c/4"^C"=c/4"^C♯"^c/4 z"^E♭" e/"^D"d/"^F" f/"^E♭"e/"^C♯"c/"^C"=c/ | %78
"^B♭" B"^A"A z"^C" c' z"^E♭" _e' z"^A" a | %79
"^C" c'2"^B♭" b2 z/"^F" f/"^E"e/"^F"f/"^F♯" ^f/"^F"=f/"^E♭"_e/"^D"d/ | %80
"^C" c"^B"=B z"^D" d' z"^F" f' z"^B" =b |"^D" d'2"^C" c'2 z2"^C" c'2 |"^D" d'6"^G" z2 | %83
"^C" c'6"^F" z2 |"^A♭" (3_AAA"^G" (3GGG"^B♭" (3BBB (3BBB | (3BBB"^A♭" (3_AAA"^B" (3=BBB (3BBB | %86
"^C" (3ccc"^C♯" (3^ccc"^C" (3=ccc"^E" (3EEE |"^A\nF" [fa]4"^E" e"^D"d"^C"c"^B♭"B | %88
"^A" A4"^G" G2"^C" c2 |"^B♭" B2"^A" A2 z4 |"^F" f4"^E" e"^D"d"^C"c"^B♭"B |"^A" A4"^G" G2"^C" c2 | %92
"^C\nC" (3[Cc][Cc][Cc] (3[Cc][Cc][Cc] (3[Cc][Cc][Cc] (3[Cc][Cc][Cc] | %93
"^C" c'4[K:bass]"^A" A,,3"^A" A,, | %94
[K:treble]"^F" (3F"^F"F"^F"F"^E" (3E"^E"E"^E"E"^F" (3F"^F"F"^F"F"^G\nE" (3[EG]"^G\nE"[EG]"^G\nE"[EG] | %95
"^D" d'4[K:bass]"^B" =B,,3"^B" B,, | z2[K:treble]"^F" f'2-"^F" f'"^C"c'"^A"a"^F"f | %97
"^E" e/4"^F"f/4"^E"e/4"^F"f/4"^E"e/4"^F"f/4"^E"e/4"^F"f/4"^E" e/4"^F"f/4"^E"e/4"^F"f/4"^E"e/4"^F"f/4"^E"e/4"^F"f/4"^F" f/4"^G"g/4"^F"f/4"^G"g/4"^F"f/4"^G"g/4"^F"f/4"^G"g/4"^F" f/4"^G"g/4"^F"f/4"^G"g/4"^F"f/4"^G"g/4"^F"f/4"^G"g/4 | %98
"^F" f/"^G"g/"^F"f z4"^A" a>"^F"f | %99
"^C\nB♭\nE" (3[EBc][EBc][EBc] (3[EBc][EBc][EBc] (3[EBc][EBc][EBc] (3[EBc][EBc][EBc] | %100
"^C\nA\nF" (3[FAc][FAc][FAc] (3[FAc][FAc][FAc]"^C\nA\nE" (3[EAc][EAc][EAc] (3[EAc][EAc][EAc] | %101
"^C\nB♭\nE" (3[EBc][EBc][EBc] (3[EBc][EBc][EBc]"^C\nB♭\nF" (3[FBc][FBc][FBc] (3[FBc][FBc][FBc] | %102
"^C\nA\nF" (3[FAc][FAc][FAc] (3[FAc]"^A\nF\nC"[CFA][CFA] (3[CFA]"^F\nC"[CF][CF] (3[CF][CF][CF] | %103
 !arpeggio![CF]8 |] %104
V:2
"^A\nF"!pp! (3[F,A,][F,A,][F,A,] (3[F,A,][F,A,][F,A,] (3[F,A,][F,A,][F,A,] (3[F,A,][F,A,][F,A,] | %1
 (3[F,A,][F,A,][F,A,] (3[F,A,][F,A,][F,A,] (3[F,A,][F,A,][F,A,] (3[F,A,][F,A,][F,A,] | %2
"^A\nF" (3[F,A,][F,A,][F,A,] (3[F,A,][F,A,][F,A,] (3[F,A,][F,A,][F,A,] (3[F,A,][F,A,][F,A,] | %3
"^B♭\nE" (3[E,B,][E,B,][E,B,] (3[E,B,][E,B,][E,B,] (3[E,B,][E,B,][E,B,] (3[E,B,][E,B,][E,B,] | %4
"^B♭\nE" (3[E,B,][E,B,][E,B,] (3[E,B,][E,B,][E,B,] (3[E,B,][E,B,][E,B,] (3[E,B,][E,B,][E,B,] | %5
"^B♭\nE" (3[E,B,][E,B,][E,B,] (3[E,B,][E,B,][E,B,] (3[E,B,][E,B,][E,B,]"^G\nE" (3[E,G,][E,G,][E,G,] | %6
"^A\nF" (3[F,A,][F,A,][F,A,] (3[F,A,][F,A,][F,A,] (3[F,A,][F,A,][F,A,] (3[F,A,][F,A,][F,A,] | %7
"^E♭\nC" (3[C_E][CE][CE] (3[CE][CE][CE] (3[CE][CE][CE] (3[CE][CE][CE] | %8
"^D\nB♭" (3[B,D][B,D][B,D] (3[B,D][B,D][B,D] (3[B,D][B,D][B,D] (3[B,D][B,D][B,D] | %9
"^D\nA♭" (3[_A,D][A,D][A,D] (3[A,D][A,D][A,D] (3[A,D][A,D][A,D] (3[A,D][A,D][A,D] | %10
"^C\nA♭" (3[_A,C][A,C][A,C] (3[A,C][A,C][A,C] (3[A,C][A,C][A,C] (3[A,C][A,C][A,C] | %11
"^B♭\nG" (3[G,B,][G,B,][G,B,] (3[G,B,][G,B,][G,B,] (3[E,B,][E,B,][E,B,] (3[E,B,][E,B,][E,B,] | %12
"^C\nA♭" (3[_A,C][A,C][A,C] (3[A,C][A,C][A,C] (3[F,C][F,C][F,C] (3[F,C][F,C][F,C] | %13
"^E\nC♯" (3[^CE][CE][CE] (3[CE][CE][CE] (3[=CE][CE][CE]"^G\nC" (3[CG][CG][CG] | %14
"^F\nB" (3[=B,F][B,F][B,F] (3[B,F][B,F][B,F] (3[DF]"^F\nD"[DF][DF]"^A♭\nF" (3[F_A][FA][FA] | %15
"^G\nF" (3[FG][FG][FG] (3[FG][FG][FG] (3[EG][EG][EG]"^C\nG" (3[G,C][G,C][G,C] | %16
"^C\nA" (3[A,C][A,C][A,C] (3[A,C][A,C][A,C]"^D\nG" (3[G,D][G,D][G,D] (3[G,D][G,D][G,D] | %17
"^C\nG" (3[G,C][G,C][G,C]"^D\nG" (3[G,D][G,D][G,D]"^C\nG" (3[G,C][G,C][G,C] (3[G,C][G,C][G,C] | %18
"^G" (3G,G,G,"^F" (3F,F,F,"^A" (3A,A,A,"^C" (3CCC | %19
"^C\nA" (3[A,C][A,C][A,C] (3[A,C][A,C][A,C]"^D\nG" (3[G,D][G,D][G,D] (3[G,D][G,D][G,D] | %20
"^C\nG" (3[G,C][G,C][G,C]"^D\nG" (3[G,D][G,D][G,D]"^C\nG" (3[G,C][G,C][G,C]"^C\nB♭" (3[B,C][B,C][B,C] | %21
"^F" (3[F,A,]"^A\nF"[F,A,][F,A,] (3[F,A,]"^F"F,F,"^F" (3F,"^C\nF"[F,,C,][F,,C,] (3[F,,C,][F,,C,][F,,C,] | %22
"^F" .F,2"^A" .A,2"^C" .C2 z2 |"^F" (3z"^C\nA" [A,C][A,C] z2"^F" (3z"^C\nA" [A,C]A, z2 | %24
"^F" (3z"^C\nA" [A,C][A,C] z2"^F" (3z"^C\nA" [A,C][A,C] z2 | %25
"^C" (3z"^B♭\nG\nE" [E,G,B,][E,G,B,] z2"^C" (3z"^B♭\nG\nE" [E,G,B,][E,G,B,] z2 | %26
"^C" (3z"^B♭\nG\nE" [E,G,B,][E,G,B,] z2"^C" (3z [E,G,B,][E,G,B,] z2 | %27
"^C" (3z"^B♭\nG\nE" [E,G,B,][E,G,B,] z2"^C" (3z"^B♭\nG\nE" [E,G,B,][E,G,B,] z2 | %28
"^F" (3z"^C\nA" [A,C][A,C] z2"^F" (3z"^C\nA" [A,C][A,C] z2 | %29
"^F" (3z"^C\nA" [A,C][A,C] z2"^F" (3z"^C\nA" [A,C][A,C] z2 | %30
"^B♭" (3z"^F\nD" [DF][DF] z2"^B♭" (3z"^F\nD" [DF][DF] z2 | %31
"^B" (3z"^A♭\nF\nD" [DF_A][DFA] z2"^B" (3z"^A♭\nF\nD" [DFA][DFA] z2 | %32
"^C" (3z"^A\nF" [FA][FA]"_A\nF" z2"^C" (3z"^A\nF" [FA][FA] z2 | %33
"^B♭" .B,2"^G" .G,2"^C" .C2"^C" .C,2 |"^F" .F,2"^A" .A,2"^C" .C2 z2 | %35
"^E" .E,2"^G" .G,2"^A" .A,2"^A" .A,,2 |"^D\nD" [D,,D,]2 z2"^D\nD" .[D,D]2"^A\nA" .[A,,A,]2 | %37
"^D\nD" [D,,D,]2 z2"^D\nD" [D,,D,]2 z2 |"^C\nC" [C,,C,]2 z2 [C,,C,]2 z2 |"^F\nF" [F,,F,]2 z2 z4 | %40
"^E" .E,2"^G" .G,2"^C" .C2 z2 |"^F" .F,2"^A" .A,2"^D" .D2 z2 |"^D" (3DDD (3DDD (3DDD (3DDD | %43
"^D" (3DDD"^B\nD" (3[D,=B,][D,B,][D,B,]"^C\nC" (3[C,C][C,C][C,C]"^G\nE♭" (3[_E,G,][E,G,][E,G,] | %44
"^F\nD" (3[D,F,][D,F,][D,F,] (3[D,F,][D,F,][D,F,]"^B\nF" (3[F,=B,]"^B\nF"[F,B,]"^B\nF"[F,B,] (3[F,B,][F,B,][F,B,] | %45
"^G\nE♭" (3[_E,G,][E,G,][E,G,] (3[E,G,][E,G,][E,G,]"^G\nC" (3[C,G,][C,G,][C,G,] (3[C,G,][C,G,][C,G,] | %46
"^B\nA♭" (3[_A,=B,][A,B,][A,B,] (3[A,B,][A,B,][A,B,]"^B\nG" (3[G,B,][G,B,][G,B,]"^D\nG" (3[G,D][G,D][G,D] | %47
"^C\nF♯" (3[^F,C][F,C][F,C] (3[F,C][F,C][F,C]"^C\nA" (3[A,C][A,C][A,C]"^E♭\nC" (3[C_E][CE]C | %48
"^D\nC" (3[CD][CD][CD] (3[CD][CD][CD]"^D\nB" (3[=B,D][B,D][B,D]"^B\nG" (3[G,B,][G,B,][G,B,] | %49
"^E" (3E,"^G"G,"^C"C"^C" (3C,"^E"E,"^C"C"^F" (3F,"^A"A,"^C"C"^D" (3D,"^A"A,"^C"C | %50
"^G" (3G,"^C"C"^D"D"^F" (3F,[K:treble]"^C"C"^D"D"^G" (3G,"^C"C"^D"D[K:bass]"^G" (3G,"^B"=B,"^D"D | %51
"^A♭" (3_A,"^B"=B,"^D"D (3z z z"^G" (3G,"^C"C"^E"E[K:bass]"^F" (3F,"^B"B,"^D"D | %52
"^E" (3E,"^G"G,"^C"C"^C" (3C,"^E"E,"^C"C"^F" (3F,"^A"A,"^C"C"^D" (3D,"^A"A,"^C"C | %53
"^G" (3G,"^C"C"^D"D"^F" (3F,"^C"C"^D"D"^G" (3G,"^C"C"^D"D"^G" (3G,"^B"=B,"^F"F | %54
"^E" (3E,E,E, (3E,E,E, (3E,E,E, (3E,E,E, |"^F♯" (3^F,"^A"A,A,"^A" (3A,A,A, (3A,A,A,"^C" (3CCC | %56
"^C" (3CCC (3CCC (3CCC (3CCC |"^G" (3G,"^B♭"B,"^D"D (3G,B,D (3G,B,D (3G,B,D | %58
"^G" (3G,"^B♭"B,"^C♯"^C (3G,B,C (3G,B,C (3G,B,C | %59
"^G" (3G,"^A"A,"^E"E"^G" (3G,"^A"A,"^E"E"^A" (3A,[K:treble]"^E"E"^A"A"^A" (3A,"^E"E"^A"A | %60
"^D" .D,2"^D" .D2"^C" .C2"^F" .F,2 |"^C\nB♭" [B,,C]2 z2"^B♭\nB♭" [B,,B,]2 z2 | %62
"^C" C2 z2"^C" C2 z2 |"^F\nF" [F,F]2 z2 [F,F]2 z2 |"^B♭" B,2 z2"^B♭" B,2 z2 | %65
"^E♭\nC" (3[C_E][CE][CE] (3[CE][CE][CE] (3[CE][CE][CE] (3[CE][CE][CE] | %66
"^D\nB♭" (3[B,D][B,D][B,D] (3[B,D][B,D][B,D] (3[B,D][B,D][B,D] (3[B,D][B,D][B,D] | %67
"^C♯\nB♭" (3[B,^C][B,C][B,C] (3[B,C][B,C]B, (3[B,C][B,C][B,C] (3[B,C][B,C][B,C] | %68
"^C\nA♭" (3[_A,C][A,C][A,C] (3[A,C][A,C][A,C] (3[A,C][A,C][A,C] (3[A,C][A,C][A,C] | %69
"^C♯\nE♯" [^E,,^C,]8 |"^C\nC" [C,,C,]2 z2 z4 |"^C""_E♭" C6"_E♭\nB♭" z2 | %72
"^A♭" (3z"^E♭\nC" [C_E][CE]"^E♭\nC" z2"^A♭" (3z"^E♭\nC" [CE]"^E♭\nC"[CE]"^E♭\nC" z2 | %73
"^A♭" (3z"^E♭\nC" [C_E][CE] z2"^A♭" (3z"^E♭\nC" [CE][CE] z2 | %74
"^G" (3z"^E♭\nC♯\nB♭" [B,^C_E][B,CE] z2"^G" (3z [B,CE][B,CE] z2 | %75
"^E♭" (3z"^C♯\nB♭\nG" [G,B,^C][G,B,C] z2"^E♭" (3z [G,B,C][G,B,C] z2 | %76
"^E♭" (3z"^C♯\nB♭\nG" [G,B,^C][G,B,C] z2"^E♭" (3z"^C♯\nB♭\nG" [G,B,C][G,B,C] z2 | %77
"^A♭" (3z[K:treble]"^E♭\nC" [C_E]"^E♭\nC"[CE]"_E♭\nC" z2"^A♭" (3z"^E♭\nC" [CE][CE][K:bass]"^F♯" (3z"^E♭\nC" [CE][CE] | %78
"^F" (3z"^E♭\nC\nA" [A,C_E][A,CE] z2"^F" (3z"^E♭\nC\nA" [A,CE][A,CE] z2 | %79
"^B♭" (3z[K:treble]"^F\nC♯" [^CF][CF] z2"^B♭" (3z"^F\nC♯" [CF][CF]"^A♭" (3z"^F\nC" [=CF][CF] | %80
"^G" (3z"^F\nD\nB" [=B,DF][B,DF] z2"^G" (3z"^F\nD\nB" [B,DF][B,DF] z2 | %81
"^E\nC" (3[CE][CE][CE]"^E\nG" (3[G,E][G,E][G,E]"^F\nF" (3[F,F][F,F][F,F]"^C\nA♭" (3[_A,C][A,C][A,C] | %82
[K:bass]"^B♭\nG" (3[G,B,][G,B,][G,B,] (3[G,B,][G,B,][G,B,] (3[E,B,][E,B,]"^B♭\nE"[E,B,] (3[E,B,][E,B,][E,B,] | %83
"^C\nA♭" (3[_A,C][A,C][A,C] (3[A,C][A,C][A,C]"^C\nF" (3[F,C][F,C][F,C] (3[F,C][F,C][F,C] | %84
"^E\nC♯" (3[^CE][CE][CE] (3[CE][CE][CE]"^E\nC" (3[=CE][CE][CE]"^G\nC" (3[CG][CG][CG] | %85
"^F\nB" (3[=B,F][B,F][B,F] (3[B,F][B,F][B,F]"^F\nD" (3[DF]"_F\nD"[DF][DF]"^A♭\nF" (3[F_A][FA][FA] | %86
"^G\nF" (3[FG][FG][FG] (3[FG][FG][FG]"^G\nE" (3[EG][EG][EG]"^C\nG" (3[G,C][G,C][G,C] | %87
"^A" (3A,,"^C"C,"^F"F,"^F" (3F,,"^A"A,,"^F"F,"^B♭" (3B,,"^D"D,"^F"F,"^G" (3G,,"^D"D,"^F"F, | %88
"^C" (3C,"^F"F,"^G"G,"^B♭" (3B,,"^F"F,"^G"G,"^C" (3C,"^F"F,"^G"G,"^C" (3C,"^E"E,"^G"G, | %89
"^C♯" (3^C,"^E"E,"^G"G,"^D" (3D,"^F"F,"^A"A,"^C" (3=C,"^F"F,"^A"A,"^B♭" (3B,,"^E"E,"^G"G, | %90
"^A" (3A,,"^C"C,"^F"F,"^F" (3F,,"^A"A,,"^F"F,"^B♭" (3B,,"^D"D,"^F"F,"^G" (3G,,"^D"D,"^F"F, | %91
"^C" (3C,"^F"F,"^G"G,"^B" (3=B,,"^F"F,"^G"G,"^C" (3C,"^F"F,"^G"G,"^C" (3C,"^E"E,"^B♭"B, | %92
"^C\nA" (3[A,C][A,C][A,C]"^B\nA♭" (3[_A,=B,][A,B,][A,B,]"^C\nA" (3[=A,C][A,C][A,C]"^D\nB" (3[B,D][B,D][B,D] | %93
"^A" (3z"^F\nE♭\nC" [C_EF][CEF] z2"^A" (3z"^F\nE♭\nC" [CEF][CEF] z2 | %94
"^D\nB♭" (3[B,,D][B,,D][B,,D]"^C♯\nB♭" (3[B,,^C][B,,C][B,,C]"^D\nB♭" (3[B,,D][B,,D][B,,D]"^C♯\nB♭" (3[B,,C][B,,C][B,,C] | %95
"^B" (3z"^A♭\nF\nD" [DF_A][DFA] z2"^B" (3z"^A♭\nF\nD" [DFA][DFA] z2 | %96
"^C" (3z"^A\nF" [FA][FA] z2"^C" (3z"^A\nF" [FA][FA] z2 | %97
[K:treble]"^C" (3z"^B♭\nG" [GB][GB] z2"^C" (3z"^B♭\nE" [EB][EB] z2 | %98
"^B♭\nG" (3[G,B,][G,B,][G,B,] (3[G,B,][G,B,][G,B,] (3[G,B,][G,B,][G,B,] (3[G,B,][G,B,][G,B,] | %99
"^B♭\nG" (3[G,B,][G,B,][G,B,] (3[G,B,][G,B,][G,B,] (3[G,B,][G,B,][G,B,] (3[G,B,][G,B,][G,B,] | %100
"^A\nF" (3[F,A,][F,A,][F,A,] (3[F,A,][F,A,][F,A,] (3[F,A,][F,A,][F,A,] (3[F,A,][F,A,][F,A,] | %101
"^B♭\nG" (3[G,B,][G,B,][G,B,] (3[G,B,][G,B,][G,B,] (3[G,B,][G,B,][G,B,] (3[G,B,][G,B,][G,B,] | %102
[K:bass]"^A\nF" (3[F,A,][F,A,][F,A,] (3[F,A,]"^F"F,F, (3F,"^C\nF"[F,,C,][F,,C,] (3[F,,C,][F,,C,][F,,C,] | %103
"^C\nF" !arpeggio![F,,C,]8 |] %104
V:3
 x8 | x8 | x8 | x8 | x8 | x8 | x8 | x8 | x8 | x8 | C6 c'2 | ^c'6 g2 | ^c'6 g2 | x8 | z8 | x8 | x8 | %17
 x8 | x8 | x8 | x8 | x8 | x2 (3[A,C][A,C][A,C] x2 (3[A,C][A,C][A,C] | x8 | x8 | x8 | x8 | x8 | %28
 _a=a a2 x4 | x4[K:bass] x4 | x8 |[K:treble] x4[K:bass] x4 | x2[K:treble] x6 | x8 | x8 | x8 | %36
 A"_A"a x8/3"^F" (3:2:2f"^D"d (3:2:1g x2/3"^C♯" (3:2:1^c | x8 | x8 | x8 | x8 | x8 | x8 | x8 | %44
 z4 (3z"^D" d"^C♯"^c (3d"^E♭"_e"^F"f | z4 (3z"^C" c"^B"=B (3c"^D"d"^E♭"_e | %46
 z4 x2/3"^B" (3:2:2=B"^A"A (3:2:1B x2/3"^D" (3:2:1d | %47
 z4 x2/3"^A" (3:2:2A"^A♭"_A (3:2:1=A x2/3"^C" (3:2:1c | z4 (3z"^G" G"^F♯"^F (3G"^A"A"^B"=B | x8 | %50
 x8 | x2 e2 z4 | x8 | x8 | x8 | x8 | x8 | x8 | x8 | x8 | x8 | x8 | x8 | x8 | x8 | x8 | x8 | x8 | %68
 x8 | x8 | x8 | x8 | x8 | x8 | x8 | x8 | x8 | x8 | x8 | x8 | x8 | x8 | %82
 z4 (3z"^G" g"^F♯"^f (3g"^A♭"_a"^B♭"b | z4 (3z"^F" f"^E"e (3f"^G"g"^A♭"_a | x8 | x8 | x8 | x8 | %88
 x8 | x8 | x8 | x8 | x8 | x4[K:bass] x4 |[K:treble] x8 | x4[K:bass] x4 | x2[K:treble] x6 | x8 | %98
 x8 | x8 | x8 | x8 | x8 | x8 |] %104
V:4
 x8 | x8 | x8 | x8 | x8 | x8 | x8 | x8 | x8 | x8 | x8 | x8 | x8 | x8 | x8 | x8 | x8 | x8 | x8 | %19
 x8 | x8 | x8 | F,4 F,4 | x8 | x8 | x8 | x8 | x8 | x8 | x4[K:bass] x4 | x8 | %31
[K:treble] x4[K:bass] x4 | x2[K:treble] x6 | x8 | x8 | x8 | x8 | x8 | x8 | x8 | x8 | x8 | x8 | x8 | %44
 x8 | x8 | x8 | x8 | x8 | x8 | x8 | x8 | x8 | x8 | x8 | x8 | x8 | x8 | x8 | x8 | x8 | x8 | x8 | %63
 x8 | x8 | x8 | x8 | x8 | x8 | x8 | x8 | x8 | x8 | x8 | x8 | x8 | x8 | x8 | x8 | x8 | x8 | x8 | %82
 x8 | x8 | x8 | x8 | x8 | x8 | x8 | x8 | x8 | x8 | x8 | x4[K:bass] x4 |[K:treble] x8 | %95
 x4[K:bass] x4 | x2[K:treble] x6 | x8 | x8 | x8 | x8 | x8 | x8 | x8 |] %104
V:5
 x8 | x8 | x8 | x8 | x8 | x8 | x8 | x8 | x8 | x8 | x8 | x8 | x8 | x8 | x8 | x8 | x8 | x8 | x8 | %19
 x8 | x8 | x8 | x8 | x2 (3[A,C][A,C][A,C] x2 (3[A,C][A,C][A,C] | %24
 x2 (3[A,C][A,C][A,C] x2 (3[A,C][A,C][A,C] | %25
 x2 (3[E,G,B,][E,G,B,][E,G,B,] x2 (3[E,G,B,][E,G,B,][E,G,B,] | %26
 x2 (3[E,G,B,][E,G,B,][E,G,B,] x2 (3[E,G,B,][E,G,B,][E,G,B,] | %27
 x2 (3[E,G,B,][E,G,B,][E,G,B,] x2 (3[E,G,B,][E,G,B,][E,G,B,] | %28
 x2 (3[A,C][A,C][A,C] x2 (3[A,C][A,C][A,C] | x2 (3[A,C][A,C][A,C] x2 (3[A,C][A,C][A,C] | %30
 x2 (3[DF][DF][DF] x2 (3[DF][DF][DF] | x2 (3[DF_A][DFA][DFA] x2 (3[DFA][DFA][DFA] | %32
 x2 (3[FA][FA][FA] x2 (3[FA][FA][FA] | x8 | x8 | x8 | x8 | x8 | x8 | x8 | x8 | x8 | x8 | x8 | x8 | %45
 x8 | x8 | x8 | x8 | x8 | x8/3[K:treble] x10/3[K:bass] x2 | x6[K:bass] x2 | x8 | x8 | x8 | x8 | %56
 x8 | x8 | x8 | x14/3[K:treble] x10/3 | x8 | x8 | x8 | x8 | x8 | x8 | x8 | x8 | x8 | x8 | x8 | %71
 _E6- [B,E]2 | x2 (3[C_E][CE][CE] x2 (3[CE][CE][CE] | x2 (3[C_E][CE][CE] x2 (3[CE][CE][CE] | %74
 x2 (3[B,^C_E][B,CE][B,CE] x2 (3[B,CE][B,CE][B,CE] | %75
 x2 (3[G,B,^C][G,B,C][G,B,C] x2 (3[G,B,C][G,B,C][G,B,C] | %76
 x2 (3[G,B,^C][G,B,C][G,B,C] x2 (3[G,B,C][G,B,C][G,B,C] | %77
 x2/3[K:treble] x4/3 (3[C_E][CE][CE] z4[K:bass] | %78
 x2 (3[A,C_E][A,CE][A,CE] x2 (3[A,CE][A,CE][A,CE] | x2/3[K:treble] x4/3 (3[^CF][CF][CF] x4 | %80
 x2 (3[=B,DF][B,DF][B,DF] x2 (3[B,DF][B,DF][B,DF] | x8 |[K:bass] x8 | x8 | x8 | x8 | x8 | x8 | x8 | %89
 x8 | x8 | x8 | x8 | x2 (3[C_EF][CEF][CEF] x2 (3[CEF][CEF][CEF] | x8 | %95
 x2 (3[DF_A][DFA][DFA] x2 (3[DFA][DFA][DFA] | x2 (3[FA][FA][FA] x2 (3[FA][FA][FA] | %97
[K:treble] x2 (3[GB][GB][GB] x2 (3[EB][EB][EB] | x8 | x8 | x8 | x8 |[K:bass] x8 | x8 |] %104
V:6
 x8 | x8 | x8 | x8 | x8 | x8 | x8 | x8 | x8 | x8 | x8 | x8 | x8 | x8 | x8 | x8 | x8 | x8 | x8 | %19
 x8 | x8 | x8 | x8 | F,4 F,4 | F,4 F,4 | C,4 C,4 | C,4 C,4 | C,4 C,4 | F,4 F,4 | F,4 F,4 | %30
 B,4 B,4 | =B,4 B,4 | C4 C4 | x8 | x8 | x8 | x8 | x8 | x8 | x8 | x8 | x8 | x8 | x8 | x8 | x8 | x8 | %47
 x8 | x8 | x8 | x8/3[K:treble] x10/3[K:bass] x2 | x6[K:bass] x2 | x8 | x8 | x8 | x8 | x8 | x8 | %58
 x8 | x14/3[K:treble] x10/3 | x8 | x8 | x8 | x8 | x8 | x8 | x8 | x8 | x8 | x8 | x8 | x8 | %72
 _A,4 A,4 | _A,4 A,4 | G,4 G,4 | _E,4 E,4 | _E,4 E,4 | _A,4[K:treble] A,2[K:bass] ^F,2 | F,4 F,4 | %79
 B,4[K:treble] [B,F]2 _A,2 | G,4 G,4 | x8 |[K:bass] x8 | x8 | x8 | x8 | x8 | x8 | x8 | x8 | x8 | %91
 x8 | x8 | A,4 A,4 | x8 | =B,4 B,4 | [C,C]4 C4 |[K:treble] C4 C4 | x8 | x8 | x8 | x8 |[K:bass] x8 | %103
 x8 |] %104

